assets/fc/fc-bullish.svg

<svg xmlns="http://www.w3.org/2000/svg" width="100%" height="100%" viewBox="0 0 48 48"><g fill="#4CAF50"><path d="M40 21h4v23h-4zM34 28h4v16h-4zM28 23h4v21h-4zM22 29h4v15h-4zM16 32h4v12h-4zM10 30h4v14h-4zM4 34h4v10H4z"/></g><g fill="#388E3C"><path d="M40.1 9.1L34 15.2l-4-4-10 10-5-5L4.6 26.6l2.8 2.8 7.6-7.6 5 5 10-10 4 4 8.9-8.9z"/><path d="M44 8h-9l9 9z"/></g></svg>

<svg xmlns="http://www.w3.org/2000/svg" width="100%" height="100%" viewBox="0 0 48 48"><g fill="#4CAF50"><path d="M40 21H44V44H40zM34 28H38V44H34zM28 23H32V44H28zM22 29H26V44H22zM16 32H20V44H16zM10 30H14V44H10zM4 34H8V44H4z"/></g><g fill="#388E3C"><path d="M40.1 9.1L34 15.2 30 11.2 20 21.2 15 16.2 4.6 26.6 7.4 29.4 15 21.8 20 26.8 30 16.8 34 20.8 42.9 11.9z"/><path d="M44 8L35 8 44 17z"/></g></svg>
